!!!!SEGMENT: pl-wumfc--n53446--001-006_moniuszko-stanislaw--hrabina-no-5-piosnka-pana-chorazego.krn
!!!cenid: 18xx:4093
!!!COM: Moniuszko, Stanisław
!!!COM-rismID: pe30008351
!!!CDT: 1819/05/05-1872/06/04
!!!CNT: Polish
!!!OPR: Hrabina
!!!OTL: No. 5. Piosnka Pana Chorążego
!!!OMV: 006
!!!PDT:
!!!AGN:
!!!SMS-siglum: PL-Wumfc
!!!SMS-shelfmark: N53446
!!!SMS-variant:
!!!SMS-altvar:
!!!SMS-shelfwork: 001-006 M
!!!NIFC-rismSourceID: 1001165649
!!!NIFC-rismChildID: 1001165649
!!!NIFC-islandoraID: pl-wumfc:6884
!!!URL-pdf-islandora: https://repozytorium.nifc.pl/islandora/object/pl-wumfc%3A6884/datastream/PDF/view
!!!URL-scan: https://polish.musicsources.pl/pl/lokalizacje/galeria/druki-muzyczne/12579 @EN{Scan on Polish Music Sources Website} @PL{Skany w portalu Dziedzictwo Muzyki Polskiej w otwartym dostępie}
!!!IIIF:
!!!ONB-nifc:
!!!AIN: 1 piano
!!!key: C
**kern	**kern	**text	**dynam
*part1	*part1	*part1	*part1
*staff2	*staff1	*	*
*I"[Piano.]	*I"[Piano.]	*	*
*>[A,B,B]	*>[A,B,B]	*	*
*>A	*>A	*	*
*Ipiano	*Ipiano	*	*
*ICklav	*ICklav	*	*
*clefF4	*clefG2	*	*
*k[]	*k[]	*	*
*C:	*C:	*	*
*M3/4	*M3/4	*	*
=1	=1	=1	=1
!!LO:TX:B:a:t=Allegro.
4C 4GG 4CC/	4g 4e 4c 4G/	.	ff
4C 4GG 4CC/	4g 4e 4c 4G/	.	.
4C 4GG 4CC/	4g 4e 4c 4G/	.	.
=2	=2	=2	=2
8CL 8GG 8CC/	8gL 8e 8c 8G/	.	.
8CJ 8GG 8CC/	8gJ 8e 8c 8G/	.	.
4C 4GG 4CC/	4g 4e 4c 4G/	.	.
4C 4GG 4CC/	4g 4e 4c 4G/	.	.
=3!|:	=3!|:	=3!|:	=3!|:
*>B	*>B	*	*
!	!LO:TX:t=P:problem:tekst zapisany ponad pięciolinią	!	!
4B 4F 4D 4C'\	4.gg 4.g\	Pomnę	f
4B 4F 4D 4C'\	.	.	.
.	8ffL 8f/	ojciec	.
4B 4F 4D 4C'\	8ee 8e/	waścin	.
.	8ddJ 8d/	.	.
=4	=4	=4	=4
8cL 8G 8E 8C\	8cc\L	gadał...	.
8cJ 8G 8E 8C\	8b\J	.	.
4c 4G 4E 4C\	4a/	.	.
4c 4G 4E 4C\	4g/	.	.
!!LO:LB:g=original
=5	=5	=5	=5
4B 4F 4D 4C\	8.ggL 8.g\	.	.
.	16ggJk 16g\	.	.
4B 4F 4D 4C\	4aa 4a'\	.	.
4B 4F 4D 4C\	4bb 4b'\	.	.
=6	=6	=6	=6
8cL 8G 8E 8C\	4.ccc 4.cc^\	.	.
8cJ 8G 8E 8C\	.	.	.
4c 4G 4E 4C'\	.	.	.
.	8bbL 8b\	.	.
4c 4G 4E 4C'\	8aa 8a\	.	.
.	8ggJ 8g\	.	.
=7	=7	=7	=7
4B 4F 4D 4C'\	4.gg 4.g^^\	.	.
4B 4F 4D 4C'\	.	.	.
.	8ffL 8f/	.	.
4B 4F 4D 4C'\	8ee 8e/	.	.
.	8ddJ 8d/	.	.
=8	=8	=8	=8
8cL 8G 8E 8C\	8cc\L	.	.
8cJ 8G 8E 8C\	8b\J	.	.
4c 4G 4E 4C\	4a/	.	.
4c 4G 4E 4C\	4g/	.	.
=9	=9	=9	=9
4B: 4G: 4D:\	8.dd:L 8.g: 8.d:/	.	.
.	16ddJk 16d/	.	.
4c: 4G: 4D:\	4ee: 4cc: 4a: 4e:/	.	.
4c: 4A: 4D:\	4ff#X: 4cc: 4a: 4f#X:\	.	.
!!LO:LB:g=original
=10	=10	=10	=10
8G: 8GG:/	8gg:L 8b: 8g:\	.	.
16r	16r	.	.
16G\	16ggJk 16g\	.	<
8A'\L	8aaL 8a'\	.	.
8B'\	8bb 8b'\	.	.
8c'\	8ccc 8cc'\	.	.
8d'\J	8dddJ 8dd'\	.	[
=11	=11	=11	=11
4c: 4G: 4E: 4C:\	4.eee 4.ccc 4.gg 4.ee\	.	sff
8r	.	.	.
8d'\L	8dddL 8dd'\	.	.
8c'\	8ccc 8cc'\	.	.
8B'\J	8bbJ 8b'\	.	.
=12	=12	=12	=12
8B\L	8bbL 8b\	.	.
8A\J	8aaJ 8a\	.	.
4e: 4B-X: 4G: 4C#X:\	4gg: 4ee: 4b-X: 4g:\	.	.
4d: 4A: 4F: 4D:\	4ff: 4dd: 4a: 4f:\	.	.
=13	=13	=13	=13
8e 8c 8G^\	8eeL 8cc 8g^\	.	.
8r	8cccJ 8cc\	.	.
8g^\	4.gg^\	.	.
8r	.	.	.
8B 8D 8GG\	.	.	.
8r	(16ffLL 16b 16f^\	.	.
.	16dd\JJ)	.	.
!!LO:LB:g=original
=14	=14	=14	=14
4G 4C\	4cc 4e/	.	.
4c: 4G: 4E: 4C:\	4ee: 4cc: 4g: 4e:/	.	sf
4c: 4G: 4E: 4C:\	4gg: 4ee: 4cc: 4g:\	.	sf
=15	=15	=15	=15
*	*^	*	*
4D 4GG 4CC/	4.ggg 4.bb^^/	4.gg 4.ff\	.	ff
4D 4GG 4CC/	.	.	.	.
.	8fff'/L	8ff\L	.	.
4D 4GG 4CC/	8eee'/	8ee\	.	.
.	8ddd'/J	8dd\J	.	.
*	*v	*v	*	*
=16	=16	=16	=16
4E 4GG 4CC/	8cccL 8cc'\	.	.
.	8bbJ 8b'\	.	.
4E 4GG 4CC/	4aa 4a'\	.	.
4E 4GG 4CC/	4gg 4g'\	.	.
=17	=17	=17	=17
8.GL 8.GG^/	8.g^/L	.	.
16FJk 16FF/	16f/Jk	.	.
4E 4EE^/	4e^/	.	.
(4D 4DD/	(4d^TT/	.	.
=18	=18	=18	=18
8C 8CC/)	8c/)	.	.
8r	8r	.	.
4C 4GG 4CC/	4ccc 4ee 4cc\	.	.
4r	4r	.	.
=:|!	=:|!	=:|!	=:|!
*-	*-	*-	*-
!!!system-decoration: {(p1)}
!!!ENC: Berenika Jozajtis
!!!END: 2022-08-21
!!!ENC: Kamil Watkowski
!!!END: 2022-09-26
!!!RDF**kern: > = above
!!!RDF**kern: < = below
!!!YEC: Copyright 2022 Narodowy Instytut Fryderyka Chopina (https://polishscores.org)
!!!YEC: Copyright 2022 Narodowy Instytut Fryderyka Chopina (https://polishscores.org)
!!!YEM: License CC-BY-4.0 (https://creativecommons.org/licenses/by/4.0)
